www/assets/icons/move_group_outline.svg

<svg width="24" height="24" viewBox="0 0 24 24" xmlns="http://www.w3.org/2000/svg" fill='currentColor'><mask id="mask0_32484_497" style="mask-type:alpha" maskUnits="userSpaceOnUse" x="0" y="0" width="24" height="24"><rect width="24" height="24"/></mask><g mask="url(#mask0_32484_497)"><path d="M8 18C7.45 18 6.97917 17.8042 6.5875 17.4125C6.19583 17.0208 6 16.55 6 16V14H8V16H20V6H8V8H6V4C6 3.45 6.19583 2.97917 6.5875 2.5875C6.97917 2.19583 7.45 2 8 2H20C20.55 2 21.0208 2.19583 21.4125 2.5875C21.8042 2.97917 22 3.45 22 4V16C22 16.55 21.8042 17.0208 21.4125 17.4125C21.0208 17.8042 20.55 18 20 18H8ZM4 22C3.45 22 2.97917 21.8042 2.5875 21.4125C2.19583 21.0208 2 20.55 2 20V6H4V20H18V22H4ZM13 15L11.6 13.6L13.175 12H6V10H13.175L11.6 8.4L13 7L17 11L13 15Z"/></g></svg>

<svg xmlns="http://www.w3.org/2000/svg" width="24" height="24" viewBox="0 0 24 24" fill='currentColor'><mask id="a" width="24" height="24" x="0" y="0" maskUnits="userSpaceOnUse" style="mask-type:alpha"><path d="M0 0h24v24H0z"/></mask><g mask="url(#a)"><path d="M8 18q-.824 0-1.412-.587A1.93 1.93 0 0 1 6 16v-2h2v2h12V6H8v2H6V4q0-.824.588-1.412A1.93 1.93 0 0 1 8 2h12q.824 0 1.413.587Q22 3.176 22 4v12q0 .824-.587 1.413A1.93 1.93 0 0 1 20 18zm-4 4q-.824 0-1.412-.587A1.93 1.93 0 0 1 2 20V6h2v14h14v2zm9-7-1.4-1.4 1.575-1.6H6v-2h7.175L11.6 8.4 13 7l4 4z"/></g></svg>
